images/shortly.svg

<svg width="88" height="88" viewBox="0 0 88 88" fill="none" xmlns="http://www.w3.org/2000/svg">
<g id="Group 9">
<g id="Oval" filter="url(#filter0_i_0_1240)">
<circle cx="44" cy="44" r="44" fill="#19ACDE"/>
</g>
<g id="shortly 2">
<path id="shortly" fill-rule="evenodd" clip-rule="evenodd" d="M26.6143 50.7228H23.0462L25.1517 39H28.7197L27.9804 43.1347C28.6233 42.3743 29.6519 41.7248 31.002 41.7248C33.0914 41.7248 34.0558 43.2297 33.6379 45.5426L32.7057 50.7228H29.1537L30.0055 45.9861C30.1663 45.1307 29.7484 44.6079 28.9769 44.6079C28.1894 44.6079 27.6268 45.1307 27.4661 45.9861V45.9703L26.6143 50.7228ZM19.2815 45.2989C20.611 45.6834 22.3953 46.1993 22.3953 47.9188C22.3953 49.804 20.563 50.8337 18.0879 50.8337C15.4842 50.8337 13.7162 49.5347 14.0377 47.6337H17.4611C17.445 48.1723 17.8307 48.4099 18.3772 48.4099C18.7469 48.4099 19.0522 48.2198 19.0522 47.9822C19.0522 47.6073 18.4415 47.4404 17.6716 47.2299C16.3591 46.8711 14.5841 46.3859 14.5841 44.5287C14.5841 42.9287 16.1271 41.6772 18.5219 41.6772C21.1899 41.6772 22.6203 43.1188 22.556 44.8772H19.3898C19.3898 44.402 19.0844 44.1168 18.5058 44.1168C18.1522 44.1168 17.8629 44.2594 17.8629 44.5287C17.8629 44.8887 18.492 45.0707 19.2815 45.2989ZM44.0447 45.4317C44.0447 43.1505 42.3893 41.6772 39.9784 41.6772C36.7157 41.6772 34.2727 43.9584 34.2727 47.095C34.2727 49.3762 35.9282 50.8337 38.339 50.8337C41.6017 50.8337 44.0447 48.6 44.0447 45.4317ZM39.432 44.7188C38.4515 44.7188 37.9372 45.8119 37.9372 46.7149C37.9372 47.4594 38.339 47.7921 38.8855 47.7921C39.8659 47.7921 40.3802 46.699 40.3802 45.796C40.3802 45.0515 39.9623 44.7188 39.432 44.7188ZM48.2958 47.0634C48.5208 45.8436 49.2602 45.4792 50.546 45.4792H51.5585L52.2175 41.7248C51.0442 41.7248 49.8388 42.4376 48.9548 43.4356L49.2441 41.7881H45.676L44.0688 50.7228H47.6369L48.2958 47.0634ZM55.665 50.7228C53.5434 50.7228 52.0969 49.8356 52.5952 47.0634L53.0131 44.7188H51.888L52.4184 41.7881H53.5434L53.9292 39.6337H57.4972L57.1115 41.7881H58.5902L58.0598 44.7188H56.5811L56.1472 47.1267C56.0829 47.5386 56.2436 47.7287 56.7097 47.7287H57.5615L57.0151 50.7228H55.665ZM58.1803 50.7228H61.7484L63.8538 39H60.2858L58.1803 50.7228ZM63.7976 41.7881L66.0477 50.2792L62.9297 55H66.8353L75 41.7881H71.0623L68.6514 46.3188L67.7675 41.7881H63.7976Z" fill="white"/>
</g>
</g>
<defs>
<filter id="filter0_i_0_1240" x="0" y="0" width="88" height="88" filterUnits="userSpaceOnUse" color-interpolation-filters="sRGB">
<feFlood flood-opacity="0" result="BackgroundImageFix"/>
<feBlend mode="normal" in="SourceGraphic" in2="BackgroundImageFix" result="shape"/>
<feColorMatrix in="SourceAlpha" type="matrix" values="0 0 0 0 0 0 0 0 0 0 0 0 0 0 0 0 0 0 127 0" result="hardAlpha"/>
<feOffset/>
<feGaussianBlur stdDeviation="17.5"/>
<feComposite in2="hardAlpha" operator="arithmetic" k2="-1" k3="1"/>
<feColorMatrix type="matrix" values="0 0 0 0 0 0 0 0 0 0 0 0 0 0 0 0 0 0 0.0452633 0"/>
<feBlend mode="normal" in2="shape" result="effect1_innerShadow_0_1240"/>
</filter>
</defs>
</svg>

<svg width="88" height="88" fill="none" xmlns="http://www.w3.org/2000/svg"><g filter="url(#a)"><circle cx="44" cy="44" r="44" fill="#19ACDE"/></g><path fill-rule="evenodd" clip-rule="evenodd" d="M26.614 50.723h-3.568L25.152 39h3.568l-.74 4.135a3.918 3.918 0 0 1 3.022-1.41c2.09 0 3.054 1.505 2.636 3.818l-.932 5.18h-3.552l.852-4.737c.16-.855-.258-1.378-1.03-1.378-.787 0-1.35.523-1.51 1.378v-.016l-.852 4.753Zm-7.332-5.424c1.329.384 3.113.9 3.113 2.62 0 1.885-1.832 2.915-4.307 2.915-2.604 0-4.372-1.3-4.05-3.2h3.423c-.016.538.37.776.916.776.37 0 .675-.19.675-.428 0-.375-.61-.542-1.38-.752-1.313-.359-3.088-.844-3.088-2.701 0-1.6 1.543-2.852 3.938-2.852 2.668 0 4.098 1.442 4.034 3.2H19.39c0-.475-.306-.76-.884-.76-.354 0-.643.142-.643.412 0 .36.629.542 1.419.77Zm24.763.133c0-2.282-1.656-3.755-4.067-3.755-3.262 0-5.705 2.281-5.705 5.418 0 2.281 1.655 3.739 4.066 3.739 3.263 0 5.706-2.234 5.706-5.402Zm-4.613-.713c-.98 0-1.495 1.093-1.495 1.996 0 .744.402 1.077.949 1.077.98 0 1.494-1.093 1.494-1.996 0-.745-.418-1.077-.948-1.077Zm8.864 2.344c.225-1.22.964-1.584 2.25-1.584h1.013l.659-3.754c-1.174 0-2.38.713-3.263 1.71l.29-1.647h-3.569l-1.607 8.935h3.568l.659-3.66Zm7.369 3.66c-2.122 0-3.568-.887-3.07-3.66l.418-2.344h-1.125l.53-2.93h1.125l.386-2.155h3.568l-.386 2.154h1.48l-.531 2.93h-1.48l-.434 2.409c-.064.412.097.602.563.602h.852l-.547 2.994h-1.35Zm2.515 0h3.568L63.854 39h-3.568L58.18 50.723Zm5.618-8.935 2.25 8.491L62.93 55h3.905L75 41.788h-3.938l-2.41 4.53-.885-4.53h-3.97Z" fill="#fff"/><defs><filter id="a" x="0" y="0" width="88" height="88" filterUnits="userSpaceOnUse" color-interpolation-filters="sRGB"><feFlood flood-opacity="0" result="BackgroundImageFix"/><feBlend in="SourceGraphic" in2="BackgroundImageFix" result="shape"/><feColorMatrix in="SourceAlpha" values="0 0 0 0 0 0 0 0 0 0 0 0 0 0 0 0 0 0 127 0" result="hardAlpha"/><feOffset/><feGaussianBlur stdDeviation="17.5"/><feComposite in2="hardAlpha" operator="arithmetic" k2="-1" k3="1"/><feColorMatrix values="0 0 0 0 0 0 0 0 0 0 0 0 0 0 0 0 0 0 0.0452633 0"/><feBlend in2="shape" result="effect1_innerShadow_0_1240"/></filter></defs></svg>
